!!!COM: Palestrina, Giovanni Perluigi da
!!!OPR: Missa De Beata Marie Virginis (II)
!!!OMD: Gloria
!!!OTL: Qui tollis
**kern	**kern	**kern	**kern	**kern
*Ibass	*Itenor	*Itenor	*Icalto	*Icant
!Bassus	!Tenor 2	!Tenor 1	!Altus	!Cantus
*clefF4	*clefGv2	*clefGv2	*clefG2	*clefG2
*k[]	*k[]	*k[]	*k[]	*k[]
*G:mix	*G:mix	*G:mix	*G:mix	*G:mix
*M4/2	*M4/2	*M4/2	*M4/2	*M4/2
=57	=57	=57	=57	=57
0r	1r	0r	1r	1g
.	1G	.	[1g	2.b
.	.	.	.	4cc
=58	=58	=58	=58	=58
0r	2B	0r	1g]	2dd
.	2c	.	.	2.ee
.	2.d	.	2.f#	.
.	.	.	.	4dd
.	.	.	.	[2dd
.	4G	.	4g	.
=59	=59	=59	=59	=59
1r	1A	1r	1e	2dd]
.	.	.	.	2cc#
1G	2.B	2r	1d	[1dd
.	.	2G	.	.
.	4c	.	.	.
=60	=60	=60	=60	=60
1G	1d	2.B	2r	1dd]
.	.	.	2d	.
.	.	4c	.	.
2F	1r	2d	2f	1r
2E	.	[2e	2g	.
=61	=61	=61	=61	=61
2F	2r	4e]	2a	2r
.	.	4d	.	.
2G	2g	1d	1b	2g
1E	1g	.	.	2b
.	.	2c	4a	2cc
.	.	.	4g	.
=62	=62	=62	=62	=62
1D	2.f	2r	2.a	4dd
.	.	.	.	4ee
.	.	1d	.	2.ff
.	4e	.	4g	.
1r	2f	.	2a	.
.	.	.	.	4ee
.	2g	2G	2b-	[2dd
=63	=63	=63	=63	=63
1r	1e	1A	1a	2dd]
.	.	.	.	2cc#
2r	2d	2.a	2.f#	1dd
[2d	4d	.	.	.
.	4e	4g	4g	.
=64	=64	=64	=64	=64
2d]	4f	2f	1a	0r
.	4g	.	.	.
2c	2.a	2e	.	.
2B	.	2d	1r	.
.	4g	.	.	.
2c	[2g	[2e	.	.
=65	=65	=65	=65	=65
1A	2g]	2e]	1r	1r
.	2f#	4d	.	.
.	.	4c	.	.
1G	2g	1B	2.d	[1dd
.	[2d	.	.	.
.	.	.	4e	.
=66	=66	=66	=66	=66
0r	4d]	0r	4f	2dd]
.	4e	.	4g	.
.	2f	.	2.a	2cc
.	2g	.	.	2b
.	.	.	4g	.
.	2c	.	[2g	2cc
=67	=67	=67	=67	=67
1r	1d	2r	2g]	1a
.	.	2d	2f#	.
2r	1r	2e	1g	1g
2G	.	4g	.	.
.	.	4f	.	.
=68	=68	=68	=68	=68
2A	0r	4e	1r	1cc
.	.	4d	.	.
1c	.	2e	.	.
.	.	1d	1g	1dd
2B	.	.	.	.
=69	=69	=69	=69	=69
1A	2r	2a	2c	2ee
.	2c	2A	1cc	2ff
2.G	1d	2r	.	[1gg
.	.	[2B	2b	.
4F	.	.	.	.
=70	=70	=70	=70	=70
2E	2e	4B]	2g	2gg]
.	.	4G	.	.
2D	2f	2d	4a	2ff
.	.	.	4b	.
2C	2.g	1G	2cc	2ee
2G	.	.	2b-	2dd
.	4f	.	.	.
=71	=71	=71	=71	=71
2A	2e	2r	2a	2cc#
2B	2d	2B	2g#	1dd
1A	1e	2c#	1a	.
.	.	2A	.	2cc#
=72	=72	=72	=72	=72
[0D	[0d	[0A	[0f#	[0dd
=73	=73	=73	=73	=73
0D]	0d]	0A]	0f#]	0dd]
*-	*-	*-	*-	*-
!!!CDT: 1525/^1526/-1594/2/2
!!!OCY: Italia
!!!AGN: Mass (Paraphrase)
!!!AST: renaissance, vocal
!!!ASW: Gregorian Mass
!!!PWK: Masses, Book Mantuan I
!!!RNB: Cadence finals: D
!!!YOR: Le Opere Complete, v. 18, p. 126
!!!YOO: Rome, Italy: Fratelli Scalera
!!!END: 1992//
!!!EED: John Miller
!!!YEC: Copyright 2000, John Miller
!!!YEN: United States of America
!!!YEM: Rights to all derivative electronic formats reserved.
!!!YEM: Refer to licensing agreement for further details.
!!!YEM: This file must be accompanied by the licensing agreement.
!!!YEM: A copy of the licensing agreement may be found at http://www.music-cog.ohio-state.edu/HumdrumDatabases/Palestrina/license.txt
!!!EMD: converted to Humdrum by Bret Aarden
